X: 5315
T: Bruach Na Carraige Baine
R: waltz
M: 3/4
K: Dmajor
|:(de)|f4ef|daa3f|(e2 d3) B|Aff2 fe|(d3e) B2|(A3 F) A2|B2 (B4|B4):|Bc||
d4 Bc|dee3f|a1 b3 a|f4fe|d4 Bc|dee2 f2|b6|(a5a) f|
g4g2|faa2af|e4 dB|Aff2fe|d3e B2|A3 F A2|B2 (B4|B4)||

